X:185
T:The Whirling of the Spinning Wheel
M:3/4
L:1/4
Q:120
C:Trad.
S:Davidsons Musical Miracles 1859
R:Waltz
K:G
D | G G/F/ G/A/ | F>E D | G G/F/ G/A/ | B>A G | c>B c/d/|
c c B/c/ | A F G | A2 :||: G | A A B | c c B |
A A/B/ G/A/ | F>E D | G G/A/ B/c/ | d c B | A G F | G2 :||
